X: 103
T: Duszo, śpiewaj Panu pieśń: O nieogarniony
C: Mikołaj Gomółka
%%abc-version 2.0
%%abcx-abcm2ps-target-version 5.9.1 (29 Sep 2008)
%%abc-creator hum2abc beta
%%abcx-conversion-date 2021/10/04 07:59:10
%%abc-edited-by Marta Lawrence
%%abcx-initial-encoding-date 2020-02-18
%%humdrum-veritas 4290740092
%%humdrum-veritas-data 3019143832
%%linebreak <none>
%%barnumbers 0
L: 1/4
M: C|
N: Derived from pl-wn--sd-xvi-qu-273--104_gomolka-mikolaj--duszo-spiewaj-panu-piesn-o-nieogarniony.krn
%%staves [1 2 3 4]
V: 1
V: 2
V: 3 clef=alto
V: 4 clef=bass
K: F
[V:1] G4G2B2 [|] 
[V:2] D4D2G2 [|] 
[V:3] B,2>A,2B,CD2 [|] 
[V:4] G,,4G,,2G,2 [|] 
[V:1] A2A4G2 [|] 
[V:2] E2D4D2 [|] 
[V:3] C2F4ED [|] 
[V:4] A,2E,2B,4 [|] 
[V:1] A4G6 [|] 
[V:2] E2E2C2D2 [|] 
[V:3] ^C2=C2G,2B,3 [|] 
[V:4] A,2A,,2C,2G,,3 [|] 
[V:1] D2F2F2 [|] 
[V:2] G2FED2D2 [|] 
[V:3] CD2A,2B,A, [|] 
[V:4] A,,B,,C,D,2B,,2 [|] 
[V:1] E4D2G2 [|] 
[V:2] C2>B,2A,2D2 [|] 
[V:3] G,F,G,2^F,2G,2 [|] 
[V:4] C,4D,2G,,2 [|] 
[V:1] G2^F2G2A2 [|] 
[V:2] D2D2D2D2 [|] 
[V:3] G,2A,2B,2=F,4 [|] 
[V:4] G,,2D,2G,,2D,4 [|] 
[V:1] B4A2G4 [|] 
[V:2] F2_EDCA,D2 [|] 
[V:3] G,2A,2B,3 [|] 
[V:4] _E,2F,2G,4 [|] 
[V:1] F2_E2D4 [|] 
[V:2] B,2A,2G,3A, [|] 
[V:3] CD2B,3A, [|] 
[V:4] D,2G,3F, [|] 
[V:1] C2D32 |]  
[V:2] B,2G,2A,32 |]  
[V:3] G,F,G,2^F,32 |]  
[V:4] _E,D,=E,2D,32 |]  


